packages/icons/src/emoji/svg/cloud.svg

<svg width="120" height="120" viewBox="0 0 120 120" fill="none" xmlns="http://www.w3.org/2000/svg">
<path d="M102.797 50.1374H102.787C102.787 50.0718 102.797 50.0062 102.797 49.9406C102.797 40.9875 95.5405 33.7218 86.578 33.7218C85.4249 33.7218 84.2999 33.8437 83.2218 34.0781C80.0061 26.2593 72.328 20.7468 63.3468 20.7468C56.6062 20.7468 50.5968 23.8593 46.6593 28.7156C44.0452 27.3862 41.1544 26.6924 38.2218 26.6906C28.5187 26.6906 20.5499 34.0781 19.6218 43.5374C9.0749 44.0999 0.609279 52.7437 0.468655 63.4781C0.318655 74.6531 9.27178 83.8406 20.4468 83.9812C21.3187 83.9906 22.1624 83.9343 23.0062 83.8312C27.328 92.9437 36.5999 99.2437 47.353 99.2437C53.8405 99.2437 59.7843 96.9468 64.4343 93.1312C67.9874 95.7656 72.3749 97.3406 77.1374 97.3406C86.9062 97.3406 95.128 90.7875 97.6874 81.8343C99.2999 82.3687 101.016 82.6687 102.806 82.6687C111.787 82.6687 119.072 75.3843 119.072 66.4031C119.062 57.4218 111.787 50.1374 102.797 50.1374Z" fill="#E3EBEE"/>
<path d="M112.359 53.2407C116.044 56.9626 113.438 65.4938 110.906 68.2782C105.919 73.7438 96.7688 72.4688 93.0938 71.6813C92.1 71.4657 91.9406 71.5407 91.6125 71.7376C91.3219 71.9157 91.1906 72.197 90.8719 72.8626C89.6906 75.4126 86.6344 80.3532 80.1844 82.3407C73.4625 84.4126 67.125 81.2532 64.1625 79.3688C63.0375 78.6563 62.9906 78.6376 62.4844 78.647C61.9688 78.6563 61.4625 79.0313 60.8531 79.5095C58.1719 81.6188 52.05 85.3407 42.6094 84.797C33.3562 84.2626 28.0594 78.5626 26.2406 75.6282C25.8937 75.0657 25.5188 74.597 25.0875 74.5501C24.5906 74.5032 24.0375 75.0095 23.625 75.422C19.6875 79.2563 7.29375 80.4095 3.1875 73.8751C7.36875 80.5782 13.8281 83.897 20.4562 83.9813C21.3281 83.9907 22.1719 83.9345 23.0156 83.8313C27.3375 92.9438 36.6094 99.2438 47.3625 99.2438C53.85 99.2438 59.7937 96.947 64.4437 93.1313C67.9969 95.7657 72.3844 97.3407 77.1469 97.3407C86.9156 97.3407 95.1375 90.7876 97.6969 81.8345C99.3094 82.3688 101.025 82.6688 102.816 82.6688C111.797 82.6688 119.081 75.3845 119.081 66.4032C119.062 61.622 116.662 56.222 112.359 53.2407Z" fill="#B9CDD2"/>
</svg>

<svg xmlns="http://www.w3.org/2000/svg" fill="none" aria-hidden="true" data-slot="icon" viewBox="0 0 120 120"><path fill="#E3EBEE" d="M102.797 50.137h-.01c0-.065.01-.13.01-.196 0-8.954-7.257-16.22-16.219-16.22-1.153 0-2.278.123-3.356.357-3.216-7.819-10.894-13.331-19.875-13.331-6.74 0-12.75 3.112-16.688 7.969a18.64 18.64 0 0 0-8.437-2.025c-9.703 0-17.672 7.387-18.6 16.846C9.075 44.1.609 52.744.469 63.478c-.15 11.175 8.803 20.363 19.978 20.503.872.01 1.715-.047 2.56-.15 4.321 9.113 13.593 15.413 24.346 15.413a26.83 26.83 0 0 0 17.081-6.113 21.25 21.25 0 0 0 12.703 4.21c9.77 0 17.991-6.553 20.55-15.507 1.613.535 3.329.835 5.119.835 8.981 0 16.266-7.285 16.266-16.266-.01-8.981-7.285-16.266-16.275-16.266"/><path fill="#B9CDD2" d="M112.359 53.24c3.685 3.723 1.079 12.254-1.453 15.038-4.987 5.466-14.137 4.19-17.812 3.403-.994-.215-1.153-.14-1.481.057-.291.178-.422.459-.741 1.125-1.181 2.55-4.238 7.49-10.688 9.478-6.721 2.072-13.059-1.088-16.022-2.972-1.125-.713-1.171-.731-1.678-.722-.515.01-1.022.384-1.63.862-2.682 2.11-8.804 5.832-18.245 5.288-9.253-.534-14.55-6.234-16.368-9.169-.347-.562-.722-1.031-1.154-1.078-.496-.047-1.05.46-1.462.872-3.937 3.834-16.331 4.987-20.437-1.547 4.18 6.703 10.64 10.022 17.268 10.106a19 19 0 0 0 2.56-.15c4.322 9.113 13.593 15.413 24.347 15.413a26.83 26.83 0 0 0 17.08-6.113 21.25 21.25 0 0 0 12.704 4.21c9.769 0 17.99-6.553 20.55-15.506 1.612.534 3.328.834 5.119.834 8.981 0 16.265-7.284 16.265-16.266-.019-4.781-2.419-10.181-6.722-13.162"/></svg>
